lib/flags/l/404.svg

<svg xmlns="http://www.w3.org/2000/svg" fill="none" viewBox="0 0 32 24"><mask id="404_svg__a" width="32" height="24" x="0" y="0" mask-type="alpha" maskUnits="userSpaceOnUse"><path fill="#fff" d="M0 0H32V24H0z"/></mask><g mask="url(#404_svg__a)"><path fill="#272727" fill-rule="evenodd" d="M0 0V8H32V0H0Z" clip-rule="evenodd"/><path fill="#4E8B1D" fill-rule="evenodd" d="M0 16V24H32V16H0Z" clip-rule="evenodd"/><path fill="#E31D1C" stroke="#F7FCFF" stroke-width="2" d="M0 7H-1V8V16V17H0H32H33V16V8V7H32H0Z"/></g><path fill="#fff" d="M19.0195 3.92892C19.2098 3.53873 19.7215 3.11264 20.5545 2.65065C20.5831 2.63477 20.6177 2.63386 20.6471 2.64821C20.6969 2.67249 20.7175 2.73254 20.693 2.7822L12.0617 20.479L11.6123 20.2598L19.2207 4.66021C18.8762 4.60409 18.8091 4.36033 19.0195 3.92892Z"/><path fill="#fff" d="M12.9713 3.92892C13.1817 4.36033 13.1146 4.60409 12.7701 4.66021L20.3785 20.2598L19.9291 20.479L11.2978 2.7822C11.2733 2.73254 11.2939 2.67249 11.3437 2.64821C11.3731 2.63386 11.4077 2.63477 11.4363 2.65065C12.2693 3.11264 12.781 3.53873 12.9713 3.92892Z"/><path fill="#E31D1C" fill-rule="evenodd" d="M16 20C16.9967 20 21 16.4183 21 12C21 7.58172 16.9967 4 16 4C15.0033 4 11 7.58172 11 12C11 16.4183 15.0033 20 16 20Z" clip-rule="evenodd"/><mask id="404_svg__b" width="10" height="16" x="11" y="4" mask-type="alpha" maskUnits="userSpaceOnUse"><path fill="#fff" fill-rule="evenodd" d="M16 20C16.9967 20 21 16.4183 21 12C21 7.58172 16.9967 4 16 4C15.0033 4 11 7.58172 11 12C11 16.4183 15.0033 20 16 20Z" clip-rule="evenodd"/></mask><g mask="url(#404_svg__b)"><path fill="#272727" d="M6.5 19C10.366 19 13.5 15.866 13.5 12 13.5 8.13401 10.366 5 6.5 5 2.63401 5-.5 8.13401-.5 12-.5 15.866 2.63401 19 6.5 19zM25.5 19C29.366 19 32.5 15.866 32.5 12 32.5 8.13401 29.366 5 25.5 5 21.634 5 18.5 8.13401 18.5 12 18.5 15.866 21.634 19 25.5 19z"/><path fill="#F7FCFF" fill-rule="evenodd" d="M16.2 10.9299C16.6564 10.6056 17 9.1932 17 7.49993C17 5.80666 16.6564 4.39424 16.2 4.06995V10.9299ZM15.7 10.8397C15.2943 10.3937 15 9.06711 15 7.49993C15 5.93276 15.2943 4.60616 15.7 4.16016V10.8397ZM15.7 13.1602V19.8397C15.2943 19.3937 15 18.0671 15 16.4999C15 14.9328 15.2943 13.6062 15.7 13.1602ZM16.2 19.9299V13.0699C16.6564 13.3942 17 14.8067 17 16.4999C17 18.1932 16.6564 19.6056 16.2 19.9299Z" clip-rule="evenodd"/><path fill="#F7FCFF" d="M16 11C16.5523 11 17 11.4477 17 12C17 12.5523 16.5523 13 16 13C15.4477 13 15 12.5523 15 12C15 11.4477 15.4477 11 16 11Z"/></g></svg>

<svg xmlns="http://www.w3.org/2000/svg" fill="none" viewBox="0 0 32 24"><mask id="404_svg__a" width="32" height="24" x="0" y="0" maskUnits="userSpaceOnUse"><path fill="#fff" d="M0 0h32v24H0z"/></mask><g mask="url(#404_svg__a)"><path fill="#272727" fill-rule="evenodd" d="M0 0v8h32V0H0z" clip-rule="evenodd"/><path fill="#4E8B1D" fill-rule="evenodd" d="M0 16v8h32v-8H0z" clip-rule="evenodd"/><path fill="#E31D1C" stroke="#F7FCFF" stroke-width="2" d="M0 7h-1v10h34V7H0z"/></g><path fill="#fff" d="M19.02 3.929c.19-.39.701-.816 1.535-1.278a.1.1 0 01.138.131L12.062 20.48l-.45-.22 7.609-15.6c-.345-.056-.412-.3-.201-.731z"/><path fill="#fff" d="M12.971 3.929c.21.431.144.675-.2.731l7.607 15.6-.449.219-8.631-17.697a.1.1 0 01.138-.131c.833.462 1.345.888 1.535 1.278z"/><path fill="#E31D1C" fill-rule="evenodd" d="M16 20c.997 0 5-3.582 5-8s-4.003-8-5-8c-.997 0-5 3.582-5 8s4.003 8 5 8z" clip-rule="evenodd"/><mask id="404_svg__b" width="10" height="16" x="11" y="4" maskUnits="userSpaceOnUse"><path fill="#fff" fill-rule="evenodd" d="M16 20c.997 0 5-3.582 5-8s-4.003-8-5-8c-.997 0-5 3.582-5 8s4.003 8 5 8z" clip-rule="evenodd"/></mask><g mask="url(#404_svg__b)"><path fill="#272727" d="M6.5 19a7 7 0 100-14 7 7 0 000 14zm19 0a7 7 0 100-14 7 7 0 000 14z"/><path fill="#F7FCFF" fill-rule="evenodd" d="M16.2 10.93c.456-.324.8-1.737.8-3.43s-.344-3.106-.8-3.43v6.86zm-.5-.09c-.406-.446-.7-1.773-.7-3.34s.294-2.894.7-3.34v6.68zm0 2.32v6.68c-.406-.446-.7-1.773-.7-3.34s.294-2.894.7-3.34zm.5 6.77v-6.86c.456.324.8 1.737.8 3.43s-.344 3.106-.8 3.43z" clip-rule="evenodd"/><path fill="#F7FCFF" d="M16 11a1 1 0 110 2 1 1 0 010-2z"/></g></svg>
